X:1
T:George William Warren
T:Columbia College
%%score { ( 1 2 ) | ( 3 4 ) }
L:1/8
M:4/4
K:G
V:1 treble nm="Piano"
V:2 treble 
V:3 bass 
V:4 bass 
V:1
 G2 G2 G2 F2 | E2 F2 E2 D2 | G2 A2 B2 d2 | c2 B2 A2 G2 | G2 A2 G4 | d2 d2 d2 B2 | e2 B2 d2 c2 | %7
 c2 A2 d2 c2 | B2 d2 c2 G2 | B2 A2 G4 | c8 | B8 |] %12
V:2
 D4 D4 | C4 C4 | [B,D]2 [CD]2 D2 [=FG]2 | [EG]2 [DG]2 ^C4 | x2 [CD]2 [B,D]4 | [DG]2 [DF]2 [DG]4 | %6
 [E^G]4 E4 | [DF]4 [DF]4 | =B2 =F2 E2 C2 | D2 C2 B,4 | E8 | D8 |] %12
V:3
 B,4 C4 | G,2 A,2 G,2 [F,A,]2 | G,2 F,2 G,4 | G,6 A,2 | B,2 F,2 G,4 | B,2 A,2 B,2 G,2 | %6
 B,2 D2 B,2 =G,2 | A,4 A,4 | B,2 G,2 G,2 G,2 | G,2 F,2 G,4 | G,8 | G,8 |] %12
V:4
 G,4 A,4 | x8 | =G,2 ^F,2 =F,2 B,,2 | C,2 D,2 D,4 | D,4 G,,4 | G,4 =F,4 | E,4 A,4 | F,4 D,4 | %8
 =B,2 B,,2 C,2 E,2 | D,2 D,2 G,,4 | C,8 | G,,8 |] %12

